src/symbolic/devices/computer-symbolic.svg

<svg xmlns="http://www.w3.org/2000/svg" width="16" height="16"><path d="M15 1c1 0 1 1 1 1v10s0 1-1 1H1s-1 0-1-1V2s0-1 1-1zm-1 2H2v8h12zm-3 11v1H5v-1c0-1 1-1 1-1h4s1 0 1 1z" fill="#444"/></svg>

<svg xmlns="http://www.w3.org/2000/svg" width="16" height="16" version="1.1">
 <path style="fill:#444444" d="M 15,1 C 16,1 16,2 16,2 V 12 C 16,12 16,13 15,13 H 1 C 1,13 0,13 0,12 V 2 C 0,2 0,1 1,1 Z M 14,3 H 2 V 11 H 14 Z M 11,14 V 15 H 5 V 14 C 5,13 6,13 6,13 H 10 C 10,13 11,13 11,14 Z"/>
</svg>
